X: 5
T: Ding dong Merrily On High
C: Arr. Edw Huws-Jones
M: 4/4
K: D
L: 1/8
V: 1 name="Vln I" snm="" clef=treble
%%MIDI channel 1
%%MIDI program 40
|: D2 A2 | D E F F | G F E E | D2 D2 |
D2 A2 | D E F F | G F E E | D2 D2 :|
V: 2 name="Vln II" snm="" clef=treble
%%MIDI channel 2
%%MIDI program 40
|: [dF] d (e/d/)(c/B/) | ([A3D] E F) A | B d d c | ([d2D] E) [d2F2] |
[dF] d (e/d/)(c/B/) | ([A3D] E F) A | D d d c | ([d2D] E) [d2F2] :|


